!!!SOCIAL_FUNCTION:	dance songs
!!!PDT:	1943
!!!OTL: No_45_Thunderbird_Dance_Song.krn
!!!REG: British Columbia
**kern	**kern
*staff2	*staff1
=1-	=1-
*clefF4	*clefF4
*k[f#c#]	*k[f#c#]
*M2/4	*M2/4
4GG/	4r
4GG/	8.r
.	16A\
=2!|:	=2!|:
4GG/	2c#\
4GG/	.
=3	=3
4GG/	8B\
.	8r
4GG/	12A\L
.	12A\
.	12A\J
=4	=4
2r	2c#\
=5	=5
2r	4B\
.	12r
.	12A\L
.	12A\J
=6	=6
2r	4B\
.	8r
.	16B\LL
.	16c#\JJ
=7	=7
2r	2B\
=8	=8
2r	12c#\L
.	12B\
.	24A\Jk
.	24r
.	16A\LK
.	8A\
.	16A\Jk
=9	=9
2r	2B\
=10	=10
2r	12c#\L
.	12B\
.	24A\Jk
.	24r
.	16A\LK
.	8.A\J
=11	=11
2r	8B\L
.	16A\Jk
.	16r
.	16A\LK
.	8.A\J
=12	=12
2r	2F#\
=13	=13
2r	4F#\
.	16F#\LL
.	16F#\JJ
.	16r
.	16A\
=14	=14
2r	2B\
=15	=15
2r	12c#\L
.	12B\
.	24A\Jk
.	24r
.	16A\LK
.	8A\J
.	16r
=16	=16
2r	2B\
=17	=17
2r	12c#\L
.	12B\
.	24A\Jk
.	24r
.	16A\LK
.	8.A\J
=18	=18
2r	8B\L
.	16A\Jk
.	16r
.	16A\LK
.	8.A\J
=19	=19
2r	2F#\
=20	=20
2r	4F#\
.	16A\LK
.	8A\
.	16A\Jk
=21:|!	=21:|!
2r	4F#\
.	16A\LK
.	8.A\J
==	==
*-	*-
